icons/desktop/16/svg/extension-fill-16.svg

<svg width="16" height="16" viewBox="0 0 16 16" fill="none" xmlns="http://www.w3.org/2000/svg">
<path d="M8.125 1.00098C9.23 1.00098 10.125 1.89598 10.125 3.00098V4.07031C10.753 4.11031 11.3802 4.16724 11.9922 4.24023C13.1339 4.37631 13.9998 5.32978 14 6.47949V12.5254C13.9998 13.6632 13.1389 14.6247 11.9961 14.7617C10.6731 14.9207 9.328 15.001 8 15.001C6.66307 15.001 5.31417 14.9187 3.99023 14.7598C2.85623 14.6228 2 13.6635 2 12.5205V11.5C2 11.362 2.112 11.25 2.25 11.25H3.75C4.71599 11.25 5.49999 10.466 5.5 9.5C5.5 8.533 4.716 7.75 3.75 7.75H2.25C2.11201 7.75 2.00001 7.63799 2 7.5V6.47656C2.0002 5.33974 2.84026 4.38008 3.95312 4.24609C4.59208 4.1681 5.23804 4.10936 5.875 4.06836V3.00098C5.875 1.89598 6.77 1.00098 7.875 1.00098H8.125Z" fill="black"/>
</svg>

<!-- This Source Code Form is subject to the terms of the Mozilla Public
   - License, v. 2.0. If a copy of the MPL was not distributed with this
   - file, You can obtain one at http://mozilla.org/MPL/2.0/. -->
<svg xmlns="http://www.w3.org/2000/svg" width="16" height="16" fill="context-fill" fill-opacity="context-fill-opacity" viewBox="0 0 16 16">
    <path d="M8.125 1.001a2 2 0 0 1 2 2v1.07c.628.04 1.255.096 1.867.17A2.26 2.26 0 0 1 14 6.478v6.046c0 1.138-.861 2.1-2.004 2.237a33.6 33.6 0 0 1-8.006-.002A2.26 2.26 0 0 1 2 12.52V11.5a.25.25 0 0 1 .25-.25h1.5a1.75 1.75 0 0 0 0-3.5h-1.5A.25.25 0 0 1 2 7.5V6.477c0-1.137.84-2.097 1.953-2.23a34 34 0 0 1 1.922-.179V3.001a2 2 0 0 1 2-2z" />
</svg>
